X:59
T:FLWRER1- The Flowers of the Forest
S:SMM #63
Q:1/4=120
L:1/4
M:C
K:Bb
FF3/4 G/4 ((3 F/G/B/) (c3/4d/8e/8)|\
{e/}d(c/B/) ((3 G3/4B/4  G/)F/ D/|\
((3 C/D/F/) (F3/4G/4) ((3 F/G/B/) (c3/4d/8e/8)|d~c3/4B/4B2|\
F F3/4 G/4 ((3 F/G/B/) c3/4d/8e/8)|\
{e/}dc/B/ (G3/4B/4)((3 G/F/D/)|\
((3 C/D/F/) (F3/4G/4) ((3 F/G/B/) (c3/4d/8e/8)|\
d~c{B/c/}B2||_A(A/4c/4) B/4A/4G((3 F/G/B/)|\
F/d/ ~c3/4B/4 (G3/4B/4 (3 G/F/D/)|\
_A(A/4c/4) (B/4A/4)G((3 F/G/B/)|\
F/d/ ~c3/4B/4B2|_A(A/4c/4) (B/4A/4)G((3 F/G/B/)|\
f/4d3/4 ~c/B/ (G3/4B/4 (3 G/F/D/)|\
((3 C/D/F/) F3/4 G/4 ((3 F/G/B/) c3/4e/8e/8|d~c{B/c/}B2||\
d/f/ f3/4 g/4 {g/}f(e/d/)|(f/d/) (c/B/) ((3 G3/4B/4 G/)F/ D/|\
d/f/ f3/4g/4 {g/}fe/d/|(c/4d/4e/4d/4) ~c3/4B/4 B3/2 c/|\
d/f/ f/g/ {g/}fe/d/|f/d/ c/B/ ((3 G3/4B/4 G/)F/ D/|\
(3 C/D/F/ F3/4G/4 ((3 F/G/B/) (c3/4d/8e/8)|\
d~c3/4B/4 B2||_A A3/8c/8 B/4A/4 G ((3 F/G/B/)|\
F/d/ ~c3/4B/4 G3/4B/4 (3 G/F/D/|\
_A (A/4c/4) (B/4A/4)G ((3F/G/B/)|\
F/d/ ~c3/4B/4B2|_AA/4c/4 B/4A/4 G (3F/G/B/|\
(f/d/) (c3/4B/4) ((3 G3/4B/4 G/)F/ D/|\
(3 C/D/F/ F3/4G/4 (3F/G/B/ (c3/4d/8e/8)|\
d ~c3/4B/4 B2|]
